svg/dollar.svg

<?xml version="1.0" encoding="UTF-8"?>
<svg xmlns="http://www.w3.org/2000/svg" xmlns:xlink="http://www.w3.org/1999/xlink" width="32" height="32" viewBox="0 0 32 32">
<path fill-rule="nonzero" fill="rgb(0%, 0%, 0%)" fill-opacity="1" d="M 21.136719 16.640625 C 20.160156 16.027344 18.792969 15.464844 17.046875 14.957031 C 15.300781 14.445312 14.046875 13.878906 13.285156 13.253906 C 12.523438 12.632812 12.140625 11.792969 12.140625 10.742188 C 12.140625 9.609375 12.503906 8.722656 13.226562 8.089844 C 13.945312 7.453125 14.988281 7.136719 16.351562 7.136719 C 17.65625 7.136719 18.695312 7.566406 19.460938 8.425781 C 20.230469 9.28125 20.613281 10.4375 20.613281 11.890625 L 20.613281 12 L 23.777344 12 L 23.777344 11.894531 C 23.777344 9.785156 23.242188 8.121094 22.171875 6.90625 C 21.097656 5.691406 19.601562 4.964844 17.675781 4.730469 L 17.667969 4.730469 L 17.667969 1.332031 L 15 1.332031 L 15 4.734375 C 13.144531 4.953125 11.675781 5.585938 10.605469 6.644531 C 9.507812 7.730469 8.960938 9.113281 8.960938 10.796875 C 8.960938 12.453125 9.519531 13.820312 10.636719 14.898438 C 11.753906 15.972656 13.535156 16.84375 15.972656 17.515625 C 17.726562 18.039062 18.972656 18.625 19.710938 19.273438 C 20.449219 19.925781 20.820312 20.722656 20.820312 21.667969 C 20.820312 22.789062 20.390625 23.675781 19.53125 24.324219 C 18.671875 24.972656 17.492188 25.296875 15.988281 25.296875 C 14.453125 25.296875 13.269531 24.910156 12.433594 24.136719 C 11.597656 23.367188 11.179688 22.269531 11.179688 20.835938 L 8 20.835938 C 8 22.871094 8.605469 24.484375 9.8125 25.675781 C 10.988281 26.832031 12.613281 27.5 14.667969 27.699219 L 14.667969 30.667969 L 17.332031 30.667969 L 17.332031 27.71875 L 17.367188 27.71875 C 19.460938 27.523438 21.09375 26.894531 22.257812 25.835938 C 23.417969 24.773438 24 23.375 24 21.636719 C 24 20.546875 23.765625 19.59375 23.304688 18.777344 C 22.839844 17.964844 22.117188 17.253906 21.136719 16.640625 M 21.136719 16.640625 "/>
</svg>

<svg role="img" viewBox="0 0 32 32" xmlns="http://www.w3.org/2000/svg"><path d="M21.137 16.64c-.977-.613-2.344-1.175-4.09-1.683q-2.619-.767-3.762-1.703-1.143-.934-1.144-2.512c0-1.133.363-2.02 1.086-2.652q1.078-.954 3.125-.953c1.304 0 2.343.43 3.109 1.289q1.154 1.283 1.152 3.465V12h3.164v-.105q0-3.166-1.605-4.989-1.609-1.823-4.496-2.176h-.008V1.332H15v3.402c-1.855.22-3.324.852-4.395 1.91Q8.96 8.268 8.961 10.798q0 2.484 1.676 4.101 1.677 1.611 5.336 2.618 2.631.785 3.738 1.757 1.108.978 1.11 2.395 0 1.683-1.29 2.656-1.288.973-3.543.973-2.301 0-3.554-1.16-1.254-1.155-1.254-3.301H8q0 3.052 1.813 4.84c1.175 1.156 2.8 1.824 4.855 2.023v2.969h2.664v-2.95h.035c2.094-.195 3.727-.823 4.89-1.882Q24 24.243 24 21.636q-.002-1.634-.695-2.859-.698-1.217-2.168-2.136m0 0"/></svg>
